X:290
R:polska
S:Efter »Florsen» i Burs.
O:Gotland, Burs
M:3/4
L:1/16
K:D
d2cB A2Bc d4|F2FA G2GB A3G|F3E DEFD A,4|d2cB A2Bc d4|F2FA G2GB A4|
A,6 D2 D4::A,2 a2 a2f2 f2ed|cdef gfge dcBA|DEFG ABAG F4|
F3E DEFD A,4|A,2 a2 a2f2 f2ed|cdef gfge dcBA|DEFG ABAG F4|A,6 D2 D4:|

